optimized/24/outline/chinese.svg

<svg viewBox="0 0 24 24" fill="none" xmlns="http://www.w3.org/2000/svg">
  <g clip-path="url(#clip0_4643_43)">
    <path fill-rule="evenodd" clip-rule="evenodd" d="M12.75 7C12.75 6.58579 12.4142 6.25 12 6.25C11.5858 6.25 11.25 6.58579 11.25 7V8.25H7.25808C6.84387 8.25 6.50808 8.58579 6.50808 9V13.5C6.50808 13.9142 6.84387 14.25 7.25808 14.25H11.25V17C11.25 17.4142 11.5858 17.75 12 17.75C12.4142 17.75 12.75 17.4142 12.75 17V14.25H16.7576C17.1718 14.25 17.5076 13.9142 17.5076 13.5V9C17.5076 8.58579 17.1718 8.25 16.7576 8.25H12.75V7ZM16.0076 9.75V12.75H12.75V9.75H16.0076ZM11.25 9.75H8.00808V12.75H11.25V9.75Z" fill="#333333"/>
    <path fill-rule="evenodd" clip-rule="evenodd" d="M5.5 2.75C3.98122 2.75 2.75 3.98122 2.75 5.5V18.5C2.75 20.0188 3.98122 21.25 5.5 21.25H18.5C20.0188 21.25 21.25 20.0188 21.25 18.5V5.5C21.25 3.98122 20.0188 2.75 18.5 2.75H5.5ZM4.25 5.5C4.25 4.80964 4.80964 4.25 5.5 4.25H18.5C19.1904 4.25 19.75 4.80964 19.75 5.5V18.5C19.75 19.1904 19.1904 19.75 18.5 19.75H5.5C4.80964 19.75 4.25 19.1904 4.25 18.5V5.5Z" fill="#333333"/>
  </g>
  <defs>
    <clipPath id="clip0_4643_43">
      <rect width="24" height="24" fill="white"/>
    </clipPath>
  </defs>
</svg>

<svg xmlns="http://www.w3.org/2000/svg" width="24" height="24" fill="none">
  <g fill="#333" fill-rule="evenodd" clip-path="url(#a)" clip-rule="evenodd">
    <path d="M12.75 7a.75.75 0 0 0-1.5 0v1.25H7.258a.75.75 0 0 0-.75.75v4.5c0 .414.336.75.75.75h3.992V17a.75.75 0 0 0 1.5 0v-2.75h4.008a.75.75 0 0 0 .75-.75V9a.75.75 0 0 0-.75-.75H12.75V7Zm3.258 2.75v3H12.75v-3h3.258Zm-4.758 0H8.008v3h3.242v-3Z"/>
    <path d="M5.5 2.75A2.75 2.75 0 0 0 2.75 5.5v13a2.75 2.75 0 0 0 2.75 2.75h13a2.75 2.75 0 0 0 2.75-2.75v-13a2.75 2.75 0 0 0-2.75-2.75h-13ZM4.25 5.5c0-.69.56-1.25 1.25-1.25h13c.69 0 1.25.56 1.25 1.25v13c0 .69-.56 1.25-1.25 1.25h-13c-.69 0-1.25-.56-1.25-1.25v-13Z"/>
  </g>
  <defs>
    <clipPath id="a">
      <path fill="#fff" d="M0 0h24v24H0z"/>
    </clipPath>
  </defs>
</svg>
